X:44
T:Polly Cleveland's Favourite THO4.044
M:2/4
L:1/8
Z:vmp. Peter Dunk 2010/11.from a transcription by Fynn Titford-Mock 2007
B:Thompson's Compleat Collection of 200 Favourite Country Dances Volume IV.
Q:1/2=80
K:D
dcdc|dAFD|dfed|c2B2|AceG|FdcB|A2T^G2|A4:|
|:ABcd|e2f2|gbag|Tf4|egfc|dB A2|TB3 c|dBAG|F2TE2|D4:|
